src/images/portfolio/hero.svg

<svg width="375" height="210" fill="none" xmlns="http://www.w3.org/2000/svg"><g clip-path="url(#clip0)"><path opacity=".1" fill-rule="evenodd" clip-rule="evenodd" d="M-299.664 103.24V45.368h39.304c15.45 0 24.904 14.795 24.904 28.936 0 14.487-10.078 28.936-26.056 28.936h-38.152zm0 34.864h40.168c21.103 0 36.927-6.265 47.924-18.671 11.056-12.475 16.452-27.497 16.452-45.129 0-17.632-5.396-32.654-16.452-45.129l-.008-.008c-10.995-12.687-26.814-18.951-47.916-18.951H-340v196.432h40.336v-68.544zm1 69.544H-341V9.216h81.504c21.312 0 37.44 6.336 48.672 19.296 11.232 12.672 16.704 27.936 16.704 45.792s-5.472 33.12-16.704 45.792c-11.232 12.672-27.36 19.008-48.672 19.008h-39.168v68.544zm180.765-35.864c-17.538 0-31.24-12.825-31.24-31.816 0-18.12 13.696-31.528 31.24-31.528 17.532 0 31.528 13.395 31.528 31.528 0 18.997-13.708 31.816-31.528 31.816zm48.844 18.15c13.32-12.753 20.14-29.474 20.14-49.966 0-20.488-6.818-36.922-20.14-49.678-13.338-12.77-29.501-19.018-48.844-19.018s-35.506 6.247-48.844 19.018c-13.315 12.748-19.852 29.179-19.852 49.678 0 20.503 6.54 37.22 19.852 49.966 13.338 12.771 29.501 19.018 48.844 19.018s35.506-6.247 48.844-19.018zM15.054 73.152h-40.032v134.496h40.032v-46.944c0-35.712 11.231-53.568 33.407-53.568 7.612 0 14.197 1.283 19.514 3.607.316.138.627.28.934.425l7.2-36C69.486 72 61.998 70.272 53.07 70.272c-14.543 0-29.872 10.981-37.016 32.197a70.136 70.136 0 00-1 3.227V73.152zm59.921 2.589l-6.8 33.999c-5.431-2.335-12.089-3.604-19.713-3.604-11.41 0-20.094 4.623-25.869 13.862-5.726 9.162-8.54 22.777-8.54 40.706v45.944h-38.031V74.152h38.032v31.544l1.961.273C22.552 82.948 38.37 71.272 53.07 71.272c8.475 0 15.6 1.58 21.905 4.469zm29.74-1.589h-24.48v29.68h24.48v102.816h37.744V103.832h28.224v-29.68h-28.224V22.6h-37.744v51.552zM143.459 21.6v51.552h28.224v31.68h-28.224v102.816h-39.744V104.832h-24.48v-31.68h24.48V21.6h39.744zm61.547 52.552h-25.344v29.68h25.344v102.816h38.32V103.832h27.072v-29.68h-27.072V63.936c0-8.606 1.747-15.277 5.367-19.812 3.653-4.576 9.086-6.82 16.081-6.82h13.688V1h-13.688c-19.244 0-34.145 5.626-44.24 16.214-10.102 10.595-15.528 26.3-15.528 46.722v10.216zM264.774 0c-38.88 0-60.768 22.752-60.768 63.936v9.216h-25.344v31.68h25.344v102.816h40.32V104.832h27.072v-31.68h-27.072v-9.216c0-16.992 6.912-25.632 20.448-25.632h14.688V0h-14.688zm85.35 171.784c-17.538 0-31.241-12.825-31.241-31.816 0-18.12 13.696-31.528 31.241-31.528 17.531 0 31.527 13.395 31.527 31.528 0 18.997-13.708 31.816-31.527 31.816zm48.844 18.15c13.319-12.753 20.14-29.474 20.14-49.966 0-20.488-6.818-36.922-20.14-49.678-13.338-12.77-29.502-19.018-48.844-19.018-19.343 0-35.506 6.247-48.845 19.018-13.315 12.748-19.852 29.179-19.852 49.678 0 20.503 6.54 37.22 19.852 49.966 13.339 12.771 29.502 19.018 48.845 19.018 19.342 0 35.506-6.247 48.844-19.018zm84.108 17.714h-40.032V0h40.032v207.648zM482.076 1h-38.032v205.648h38.032V1zm31.989 206.648V73.152h39.744v134.496h-39.744zm38.744-1V74.152h-37.744v132.496h37.744zM533.937 1c-13.343 0-24.056 9.989-24.056 22.328 0 12.355 10.73 22.616 24.056 22.616 13.015 0 23.48-10.24 23.48-22.616C557.417 10.967 546.969 1 533.937 1zm112.5 170.784c-17.538 0-31.24-12.825-31.24-31.816 0-18.12 13.696-31.528 31.24-31.528 17.532 0 31.528 13.395 31.528 31.528 0 18.997-13.708 31.816-31.528 31.816zm48.845 18.15c13.319-12.753 20.139-29.474 20.139-49.966 0-20.488-6.817-36.922-20.139-49.678-13.339-12.77-29.502-19.018-48.845-19.018-19.342 0-35.506 6.247-48.844 19.018-13.315 12.748-19.852 29.179-19.852 49.678 0 20.503 6.54 37.22 19.852 49.966 13.338 12.771 29.502 19.018 48.844 19.018 19.343 0 35.506-6.247 48.845-19.018zm-931.738-115.63c0-13.824-9.216-27.936-23.904-27.936h-38.304v55.872h37.152c15.264 0 25.056-13.824 25.056-27.936zm88.317 65.664c0 18.432 13.248 30.816 30.24 30.816 17.28 0 30.528-12.384 30.528-30.816 0-17.568-13.536-30.528-30.528-30.528-16.992 0-30.24 12.96-30.24 30.528zm100.224 0c0 20.736-6.912 37.728-20.448 50.688-13.536 12.96-29.952 19.296-49.536 19.296s-36-6.336-49.536-19.296c-13.536-12.96-20.16-29.952-20.16-50.688s6.624-37.44 20.16-50.4c13.536-12.96 29.952-19.296 49.536-19.296s36 6.336 49.536 19.296c13.536 12.96 20.448 29.664 20.448 50.4zm367.798 0c0 18.432 13.249 30.816 30.241 30.816 17.28 0 30.527-12.384 30.527-30.816 0-17.568-13.535-30.528-30.527-30.528s-30.241 12.96-30.241 30.528zm100.225 0c0 20.736-6.913 37.728-20.449 50.688-13.535 12.96-29.951 19.296-49.535 19.296-19.585 0-36-6.336-49.536-19.296-13.536-12.96-20.161-29.952-20.161-50.688s6.625-37.44 20.161-50.4c13.536-12.96 29.951-19.296 49.536-19.296 19.584 0 36 6.336 49.535 19.296 13.536 12.96 20.449 29.664 20.449 50.4zm88.773-116.64C508.881 10.368 520.113 0 533.937 0c13.536 0 24.48 10.368 24.48 23.328 0 12.96-10.944 23.616-24.48 23.616-13.824 0-25.056-10.656-25.056-23.616zm107.316 116.64c0 18.432 13.248 30.816 30.24 30.816 17.28 0 30.528-12.384 30.528-30.816 0-17.568-13.536-30.528-30.528-30.528-16.992 0-30.24 12.96-30.24 30.528zm100.224 0c0 20.736-6.912 37.728-20.448 50.688-13.536 12.96-29.952 19.296-49.536 19.296s-36-6.336-49.536-19.296c-13.536-12.96-20.16-29.952-20.16-50.688s6.624-37.44 20.16-50.4c13.536-12.96 29.952-19.296 49.536-19.296s36 6.336 49.536 19.296c13.536 12.96 20.448 29.664 20.448 50.4z" fill="#fff"/></g><defs><clipPath id="clip0"><path fill="#fff" d="M0 0h375v210H0z"/></clipPath></defs></svg>

<svg width="375" height="210" viewBox="0 0 375 210" fill="none" xmlns="http://www.w3.org/2000/svg">
<g clip-path="url(#clip0)">
<path opacity="0.1" fill-rule="evenodd" clip-rule="evenodd" d="M-299.664 103.24V45.368H-260.36C-244.91 45.368 -235.456 60.1633 -235.456 74.304C-235.456 88.7912 -245.534 103.24 -261.512 103.24H-299.664ZM-299.664 138.104H-259.496C-238.393 138.104 -222.569 131.839 -211.572 119.433C-200.516 106.958 -195.12 91.9362 -195.12 74.304C-195.12 56.6718 -200.516 41.6495 -211.572 29.1753L-211.58 29.167C-222.575 16.4801 -238.394 10.216 -259.496 10.216H-340V206.648H-299.664V138.104ZM-298.664 207.648H-341V9.216H-259.496C-238.184 9.216 -222.056 15.552 -210.824 28.512C-199.592 41.184 -194.12 56.448 -194.12 74.304C-194.12 92.16 -199.592 107.424 -210.824 120.096C-222.056 132.768 -238.184 139.104 -259.496 139.104H-298.664V207.648ZM-117.899 171.784C-135.437 171.784 -149.139 158.959 -149.139 139.968C-149.139 121.848 -135.443 108.44 -117.899 108.44C-100.367 108.44 -86.371 121.835 -86.371 139.968C-86.371 158.965 -100.079 171.784 -117.899 171.784ZM-69.0546 189.934C-55.7354 177.181 -48.915 160.46 -48.915 139.968C-48.915 119.48 -55.7325 103.046 -69.0546 90.2903C-82.393 77.5194 -98.5564 71.272 -117.899 71.272C-137.242 71.272 -153.405 77.5194 -166.743 90.2903C-180.058 103.038 -186.595 119.469 -186.595 139.968C-186.595 160.471 -180.055 177.188 -166.743 189.934C-153.405 202.705 -137.242 208.952 -117.899 208.952C-98.5564 208.952 -82.393 202.705 -69.0546 189.934ZM15.0535 73.152H-24.9785V207.648H15.0535V160.704C15.0535 124.992 26.2855 107.136 48.4615 107.136C56.073 107.136 62.6581 108.419 67.9748 110.743C68.2909 110.881 68.6024 111.023 68.9095 111.168L76.1095 75.168C69.4855 72 61.9975 70.272 53.0695 70.272C38.5257 70.272 23.1975 81.2535 16.0535 102.469C15.6997 103.52 15.366 104.595 15.0535 105.696V73.152ZM74.9751 75.741L68.1754 109.74C62.7436 107.405 56.0864 106.136 48.4615 106.136C37.0516 106.136 28.368 110.759 22.5935 119.998C16.8672 129.16 14.0535 142.775 14.0535 160.704V206.648H-23.9785V74.152H14.0535V105.696L16.0155 105.969C22.5524 82.9478 38.369 71.272 53.0695 71.272C61.5448 71.272 68.6699 72.8518 74.9751 75.741ZM104.715 74.152H80.2347V103.832H104.715V206.648H142.459V103.832H170.683V74.152H142.459V22.6H104.715V74.152ZM143.459 21.6V73.152H171.683V104.832H143.459V207.648H103.715V104.832H79.2347V73.152H103.715V21.6H143.459ZM205.006 74.152H179.662V103.832H205.006V206.648H243.326V103.832H270.398V74.152H243.326V63.936C243.326 55.3295 245.073 48.6587 248.693 44.1241C252.346 39.548 257.779 37.304 264.774 37.304H278.462V1H264.774C245.53 1 230.629 6.62622 220.534 17.2141C210.432 27.8091 205.006 43.5133 205.006 63.936V74.152ZM264.774 0C225.894 0 204.006 22.752 204.006 63.936V73.152H178.662V104.832H204.006V207.648H244.326V104.832H271.398V73.152H244.326V63.936C244.326 46.944 251.238 38.304 264.774 38.304H279.462V0H264.774ZM350.124 171.784C332.586 171.784 318.883 158.959 318.883 139.968C318.883 121.848 332.579 108.44 350.124 108.44C367.655 108.44 381.651 121.835 381.651 139.968C381.651 158.965 367.943 171.784 350.124 171.784ZM398.968 189.934C412.287 177.181 419.108 160.46 419.108 139.968C419.108 119.48 412.29 103.046 398.968 90.2903C385.63 77.5194 369.466 71.272 350.124 71.272C330.781 71.272 314.618 77.5194 301.279 90.2903C287.964 103.038 281.427 119.469 281.427 139.968C281.427 160.471 287.967 177.188 301.279 189.934C314.618 202.705 330.781 208.952 350.124 208.952C369.466 208.952 385.63 202.705 398.968 189.934ZM483.076 207.648H443.044V0H483.076V207.648ZM482.076 1H444.044V206.648H482.076V1ZM514.065 207.648V73.152H553.809V207.648H514.065ZM552.809 206.648V74.152H515.065V206.648H552.809ZM533.937 1C520.594 1 509.881 10.9888 509.881 23.328C509.881 35.6826 520.611 45.944 533.937 45.944C546.952 45.944 557.417 35.7048 557.417 23.328C557.417 10.9668 546.969 1 533.937 1ZM646.437 171.784C628.899 171.784 615.197 158.959 615.197 139.968C615.197 121.848 628.893 108.44 646.437 108.44C663.969 108.44 677.965 121.835 677.965 139.968C677.965 158.965 664.257 171.784 646.437 171.784ZM695.282 189.934C708.601 177.181 715.421 160.46 715.421 139.968C715.421 119.48 708.604 103.046 695.282 90.2903C681.943 77.5194 665.78 71.272 646.437 71.272C627.095 71.272 610.931 77.5194 597.593 90.2903C584.278 103.038 577.741 119.469 577.741 139.968C577.741 160.471 584.281 177.188 597.593 189.934C610.931 202.705 627.095 208.952 646.437 208.952C665.78 208.952 681.943 202.705 695.282 189.934ZM-236.456 74.304C-236.456 60.48 -245.672 46.368 -260.36 46.368H-298.664V102.24H-261.512C-246.248 102.24 -236.456 88.416 -236.456 74.304ZM-148.139 139.968C-148.139 158.4 -134.891 170.784 -117.899 170.784C-100.619 170.784 -87.371 158.4 -87.371 139.968C-87.371 122.4 -100.907 109.44 -117.899 109.44C-134.891 109.44 -148.139 122.4 -148.139 139.968ZM-47.915 139.968C-47.915 160.704 -54.827 177.696 -68.363 190.656C-81.899 203.616 -98.315 209.952 -117.899 209.952C-137.483 209.952 -153.899 203.616 -167.435 190.656C-180.971 177.696 -187.595 160.704 -187.595 139.968C-187.595 119.232 -180.971 102.528 -167.435 89.568C-153.899 76.608 -137.483 70.272 -117.899 70.272C-98.315 70.272 -81.899 76.608 -68.363 89.568C-54.827 102.528 -47.915 119.232 -47.915 139.968ZM319.883 139.968C319.883 158.4 333.132 170.784 350.124 170.784C367.404 170.784 380.651 158.4 380.651 139.968C380.651 122.4 367.116 109.44 350.124 109.44C333.132 109.44 319.883 122.4 319.883 139.968ZM420.108 139.968C420.108 160.704 413.195 177.696 399.659 190.656C386.124 203.616 369.708 209.952 350.124 209.952C330.539 209.952 314.124 203.616 300.588 190.656C287.052 177.696 280.427 160.704 280.427 139.968C280.427 119.232 287.052 102.528 300.588 89.568C314.124 76.608 330.539 70.272 350.124 70.272C369.708 70.272 386.124 76.608 399.659 89.568C413.195 102.528 420.108 119.232 420.108 139.968ZM508.881 23.328C508.881 10.368 520.113 0 533.937 0C547.473 0 558.417 10.368 558.417 23.328C558.417 36.288 547.473 46.944 533.937 46.944C520.113 46.944 508.881 36.288 508.881 23.328ZM616.197 139.968C616.197 158.4 629.445 170.784 646.437 170.784C663.717 170.784 676.965 158.4 676.965 139.968C676.965 122.4 663.429 109.44 646.437 109.44C629.445 109.44 616.197 122.4 616.197 139.968ZM716.421 139.968C716.421 160.704 709.509 177.696 695.973 190.656C682.437 203.616 666.021 209.952 646.437 209.952C626.853 209.952 610.437 203.616 596.901 190.656C583.365 177.696 576.741 160.704 576.741 139.968C576.741 119.232 583.365 102.528 596.901 89.568C610.437 76.608 626.853 70.272 646.437 70.272C666.021 70.272 682.437 76.608 695.973 89.568C709.509 102.528 716.421 119.232 716.421 139.968Z" fill="white"/>
</g>
<defs>
<clipPath id="clip0">
<rect width="375" height="210" fill="white"/>
</clipPath>
</defs>
</svg>
